Obsidian-SemiLight/actions/24s/format-border-set-diagonal-tl-br.svg

<svg viewBox="0 0 24 24" xmlns="http://www.w3.org/2000/svg"><g fill="#4d4d4d"><path d="m4.7070312 3 1 1h6.2929688v6.292969l1.707031 1.707031h6.292969v6.292969l1 1v-.292969-7-1-7-1h-1-7-1-7zm-.7070312.7070312v.2929688 7 1 7 1h1 7 1 7 .292969l-1-1h-6.292969v-6.292969l-1.707031-1.707031h-6.292969v-6.2929688zm9 .2929688h7v7h-7zm-8 8h7v7h-7z" fill-opacity=".1"/><path d="m5.7070312 4 6.2929688 6.292969v-6.292969zm7.2929688 0v7h7v-7zm-8 .7070312v6.2929688h6.292969zm0 7.2929688v7h7v-7zm8.707031 0 6.292969 6.292969v-6.292969zm-.707031.707031v6.292969h6.292969z" fill-opacity=".5"/><path d="m4 3v.7070312l16.292969 16.2929688h.707031v-.707031l-16.2929688-16.292969z"/></g></svg>

<svg xmlns="http://www.w3.org/2000/svg" viewBox="0 0 24 24">
  <defs id="defs3051">
    <style type="text/css" id="current-color-scheme">
      .ColorScheme-Text {
        color:#4d4d4d;
      }
      </style>
  </defs>
 <path 
     style="fill:currentColor;fill-opacity:0.1;stroke:none" 
     d="M 4.7070312 3 L 5.7070312 4 L 12 4 L 12 10.292969 L 13.707031 12 L 20 12 L 20 18.292969 L 21 19.292969 L 21 19 L 21 12 L 21 11 L 21 4 L 21 3 L 20 3 L 13 3 L 12 3 L 5 3 L 4.7070312 3 z M 4 3.7070312 L 4 4 L 4 11 L 4 12 L 4 19 L 4 20 L 5 20 L 12 20 L 13 20 L 20 20 L 20.292969 20 L 19.292969 19 L 13 19 L 13 12.707031 L 11.292969 11 L 5 11 L 5 4.7070312 L 4 3.7070312 z M 13 4 L 20 4 L 20 11 L 13 11 L 13 4 z M 5 12 L 12 12 L 12 19 L 5 19 L 5 12 z "
     class="ColorScheme-Text"
     />
 <path 
     style="fill:currentColor;fill-opacity:0.5;stroke:none" 
     d="M 5.7070312 4 L 12 10.292969 L 12 4 L 5.7070312 4 z M 13 4 L 13 11 L 20 11 L 20 4 L 13 4 z M 5 4.7070312 L 5 11 L 11.292969 11 L 5 4.7070312 z M 5 12 L 5 19 L 12 19 L 12 12 L 5 12 z M 13.707031 12 L 20 18.292969 L 20 12 L 13.707031 12 z M 13 12.707031 L 13 19 L 19.292969 19 L 13 12.707031 z "
     class="ColorScheme-Text"
     />
 <path 
     style="fill:currentColor;fill-opacity:1.0;stroke:none" 
     d="M 4 3 L 4 3.7070312 L 20.292969 20 L 21 20 L 21 19.292969 L 4.7070312 3 L 4 3 z "
     class="ColorScheme-Text"
     />
</svg>
